X:174
T: MAEDCHEN WARUM WEINEST DU
N: E0764
O: Europa, Mitteleuropa, Deutschland, Rheinprovinz; Unter - Taunus
R: Abschieds - Lied, Liebe
M: 2/4
L: 1/8
K: F
 | AAAA | Acc2 |
cBBB | A2z2 |
GBBB | Accc |
GBBB | Accc |
AAAA | Acc2 |
cBBB | A2z2

